X:116
T:The Croquette
S:American Veteran Fifer #116
C:To Geo. Harris, Fifer Marysville O. Co. 121st O.V.I.
% Company assignment of Geo. Harris missing or too faint to see
M:2/4
L:1/8
Q:1/8=190
K:D 
%%MIDI program 72
%%MIDI transpose 8
%%MIDI ratio 3 1
z | F>G AA | BB A2 | d/c/d/e/ fg/f/ | edBd |
F>G AA | BB A2 | d/c/d/e/ fg/e/ | dcd :|
|: e/f/ | gfef | gf e2 | gfed | cB A2 |
F>G AA | BB A2 | d/c/d/e/ fg/e/ | dcd :|


